!!!OTL@@FUR: O durm&icirc;so op&ucirc;r veglaiso
!!!OTL@IT: Dormite oppure vegliate
!!!OTL@EN: Are you sleeping or awaking?
**kern
*clefG2
*k[f#]
*G:
*M3/4
*MM120
*>[A,A]
*>A
4b
4cc
=1
4ee
4dd
4b
=2
4dd
4ff#
4ee
=3
4dd
[2cc
=4
8cc]
8r
4a
4b
=5
4dd
4cc
4a
=6
4dd
4ee
4dd
=7
4cc
[2b
=8
8b]
8r
4b
4cc
*M2/4
=9
4ee
4dd
4b
=10
4dd
4ff#
4ee
=11
4dd
[2cc
=12
8cc]
8r
4a
4b
=13
4dd
4cc
4a
=14
4dd
4ee
4dd
=15
[2.b
=16
8b]
8r
==:|!
*-
!!!ARE: Friuli
!!!ENC: Kelly Leistikow
!!!END: 2002/03/07
!!!ref: @{OTL@@FUR}/@{OTL@EN}
